public/images/icon-instagram.svg

<svg width="17" height="17" viewBox="0 0 17 17" xmlns="http://www.w3.org/2000/svg">
<g clip-path="url(#clip0_1_401)">
<path d="M8.23795 5.39339C6.25174 5.39339 4.64965 6.99547 4.64965 8.98168C4.64965 10.9679 6.25174 12.57 8.23795 12.57C10.2242 12.57 11.8262 10.9679 11.8262 8.98168C11.8262 6.99547 10.2242 5.39339 8.23795 5.39339ZM8.23795 11.3145C6.95441 11.3145 5.90509 10.2683 5.90509 8.98168C5.90509 7.69502 6.95128 6.64882 8.23795 6.64882C9.52461 6.64882 10.5708 7.69502 10.5708 8.98168C10.5708 10.2683 9.52149 11.3145 8.23795 11.3145ZM12.81 5.24661C12.81 5.71193 12.4352 6.08356 11.973 6.08356C11.5077 6.08356 11.1361 5.70881 11.1361 5.24661C11.1361 4.78441 11.5108 4.40965 11.973 4.40965C12.4352 4.40965 12.81 4.78441 12.81 5.24661ZM15.1866 6.09606C15.1335 4.97491 14.8774 3.98181 14.056 3.16359C13.2378 2.34537 12.2447 2.08929 11.1236 2.03307C9.96807 1.96749 6.5047 1.96749 5.3492 2.03307C4.23118 2.08616 3.23807 2.34225 2.41673 3.16047C1.59539 3.97868 1.34243 4.97179 1.28622 6.09293C1.22063 7.24843 1.22063 10.7118 1.28622 11.8673C1.33931 12.9884 1.59539 13.9816 2.41673 14.7998C3.23807 15.618 4.22805 15.8741 5.3492 15.9303C6.5047 15.9959 9.96807 15.9959 11.1236 15.9303C12.2447 15.8772 13.2378 15.6211 14.056 14.7998C14.8743 13.9816 15.1303 12.9884 15.1866 11.8673C15.2521 10.7118 15.2521 7.25155 15.1866 6.09606ZM13.6938 13.1071C13.4502 13.7192 12.9786 14.1908 12.3634 14.4375C11.4421 14.8029 9.25603 14.7186 8.23795 14.7186C7.21986 14.7186 5.03066 14.7998 4.1125 14.4375C3.5004 14.1939 3.02883 13.7223 2.78212 13.1071C2.41673 12.1858 2.50105 9.99977 2.50105 8.98168C2.50105 7.96359 2.41985 5.77439 2.78212 4.85624C3.02571 4.24414 3.49728 3.77257 4.1125 3.52585C5.03378 3.16047 7.21986 3.24479 8.23795 3.24479C9.25603 3.24479 11.4452 3.16359 12.3634 3.52585C12.9755 3.76944 13.4471 4.24101 13.6938 4.85624C14.0592 5.77751 13.9748 7.96359 13.9748 8.98168C13.9748 9.99977 14.0592 12.189 13.6938 13.1071Z" fill="currentColor"/>
</g>
<defs>
<clipPath id="clip0_1_401">
<rect width="15.99" height="15.99" fill="currentColor" transform="translate(0.240021 0.98999)"/>
</clipPath>
</defs>
</svg>

<svg xmlns="http://www.w3.org/2000/svg" width="17" height="17"><g clip-path="url(#a)"><path fill="currentColor" d="M8.238 5.3934c-1.9863 0-3.5883 1.602-3.5883 3.5883 0 1.9862 1.602 3.5883 3.5882 3.5883 1.9863 0 3.5883-1.6021 3.5883-3.5883 0-1.9862-1.602-3.5883-3.5883-3.5883Zm0 5.9211c-1.2836 0-2.333-1.0462-2.333-2.3328 0-1.2867 1.0463-2.3329 2.333-2.3329 1.2866 0 2.3328 1.0462 2.3328 2.3329 0 1.2866-1.0493 2.3328-2.3329 2.3328Zm4.572-6.0679a.835.835 0 0 1-.837.837.835.835 0 0 1-.8369-.837.837.837 0 0 1 1.6739 0Zm2.3766.8495c-.0531-1.1212-.3092-2.1143-1.1306-2.9325-.8182-.8182-1.8113-1.0743-2.9324-1.1305-1.1555-.0656-4.6189-.0656-5.7744 0-1.118.053-2.1111.3091-2.9325 1.1274-.8213.8182-1.0743 1.8113-1.1305 2.9324-.0656 1.1555-.0656 4.6189 0 5.7744.0531 1.1211.3092 2.1143 1.1305 2.9325.8214.8182 1.8113 1.0743 2.9325 1.1305 1.1555.0656 4.6189.0656 5.7744 0 1.1211-.0531 2.1142-.3092 2.9324-1.1305.8183-.8182 1.0743-1.8114 1.1306-2.9325.0655-1.1555.0655-4.6158 0-5.7712Zm-1.4928 7.011c-.2436.6121-.7152 1.0837-1.3304 1.3304-.9213.3654-3.1074.2811-4.1255.2811-1.018 0-3.2072.0812-4.1254-.2811-.6121-.2436-1.0837-.7152-1.3304-1.3304-.3654-.9213-.281-3.1073-.281-4.1254s-.0813-3.2073.281-4.1255c.2436-.612.7152-1.0836 1.3304-1.3304.9213-.3653 3.1074-.281 4.1254-.281 1.0181 0 3.2073-.0812 4.1255.281.6121.2436 1.0837.7152 1.3304 1.3304.3654.9213.281 3.1074.281 4.1255 0 1.018.0844 3.2073-.281 4.1254Z"/></g><defs><clipPath id="a"><path fill="currentColor" d="M.24.99h15.99v15.99H.24z"/></clipPath></defs></svg>
